web/packages/design/src/ResourceIcon/assets/spacelift-dark.svg

<svg width="72" height="72" viewBox="0 0 72 72" fill="none" xmlns="http://www.w3.org/2000/svg">
<g clip-path="url(#clip0_15139_23687)">
<path d="M60.7565 37.7454C59.9821 43.0581 57.6214 46.2275 54.2798 46.4402C52.1661 46.5766 49.9582 45.5224 48.4163 43.8497C50.8853 42.2775 52.9655 40.258 54.526 37.9192C56.0866 35.5803 57.0932 32.9734 57.4812 30.2637C50.7949 32.0974 43.9989 33.5042 37.1341 34.4755C30.2533 35.5141 23.3138 36.1173 16.3569 36.2815C17.9744 39.3153 20.4262 41.9222 23.4764 43.8536C19.538 47.9112 15.3994 54.4416 15.3994 63.9997H21.0323C21.0323 56.6706 23.9049 51.5013 26.8896 48.1036C26.0471 53.3663 25.5172 58.6743 25.3026 63.9997H35.304C35.304 63.9997 33.4692 57.1358 36.4563 57.1295C39.4418 57.135 37.6078 63.9997 37.6078 63.9997H47.6084C47.4097 58.969 46.9241 53.9538 46.1538 48.9785C47.2836 49.7991 48.5317 50.4427 49.8553 50.8873C51.394 51.407 53.0372 51.6252 54.6756 51.5278C56.1528 51.4265 57.5903 51.0525 58.8999 50.4269C60.188 49.8179 61.3403 48.956 62.2883 47.8925C64.3918 45.6175 65.7553 42.4278 66.3412 38.4115L60.7565 37.7454Z" fill="white"/>
<path d="M37.4258 36.1382C57.2929 33.2127 72.7582 27.2876 71.9713 22.9051C71.1828 18.5219 54.4398 17.34 34.5742 20.2655C14.7071 23.1911 -0.75815 29.1169 0.0287453 33.4994C0.817199 37.8826 17.5602 39.0638 37.4258 36.1382Z" fill="url(#paint0_linear_15139_23687)"/>
<path d="M55.5152 19.2496C53.2487 14.9941 49.3665 11.6183 44.5781 9.74063C39.7889 7.86299 34.4139 7.60822 29.4346 9.02229C24.4554 10.4371 20.2046 13.4266 17.4598 17.4444C14.715 21.4623 13.6586 26.2405 14.4852 30.9042C15.5331 36.7717 58.4843 30.7718 57.3873 24.6262C57.0471 22.7474 56.4154 20.9334 55.5152 19.2496Z" fill="white"/>
</g>
<defs>
<linearGradient id="paint0_linear_15139_23687" x1="0.000697584" y1="28.2023" x2="71.9993" y2="28.2023" gradientUnits="userSpaceOnUse">
<stop offset="0.082" stop-color="#82FFE8"/>
<stop offset="0.951" stop-color="#7C47FC"/>
</linearGradient>
<clipPath id="clip0_15139_23687">
<rect width="72" height="72" fill="white"/>
</clipPath>
</defs>
</svg>

<svg xmlns="http://www.w3.org/2000/svg" width="72" height="72" fill="none" viewBox="0 0 72 72"><g clip-path="url(#clip0_15139_23687)"><path fill="#fff" d="M60.757 37.745c-.775 5.313-3.136 8.483-6.477 8.695-2.114.137-4.322-.918-5.864-2.59 2.47-1.572 4.55-3.592 6.11-5.93 1.56-2.34 2.567-4.947 2.955-7.656a164 164 0 0 1-20.347 4.211 165 165 0 0 1-20.777 1.806c1.617 3.034 4.07 5.641 7.12 7.573-3.94 4.056-8.079 10.588-8.079 20.146h5.633c0-7.33 2.873-12.499 5.858-15.896A135 135 0 0 0 25.303 64h10.001s-1.835-6.864 1.152-6.87c2.986.005 1.152 6.87 1.152 6.87h10a132 132 0 0 0-1.454-15.022 13.8 13.8 0 0 0 3.701 1.91 12.7 12.7 0 0 0 4.82.64 11.7 11.7 0 0 0 4.225-1.101 10.6 10.6 0 0 0 3.388-2.535c2.104-2.275 3.467-5.464 4.053-9.48z"/><path fill="url(#paint0_linear_15139_23687)" d="M37.426 36.138c19.867-2.925 35.332-8.85 34.545-13.233-.788-4.383-17.531-5.565-37.397-2.64C14.707 23.191-.758 29.118.03 33.5c.788 4.384 17.531 5.565 37.397 2.64"/><path fill="#fff" d="M55.515 19.25c-2.266-4.256-6.148-7.632-10.937-9.51-4.79-1.877-10.164-2.132-15.143-.718s-9.23 4.405-11.975 8.422-3.801 8.797-2.975 13.46c1.048 5.868 44-.132 42.902-6.278a18.3 18.3 0 0 0-1.872-5.376"/></g><defs><linearGradient id="paint0_linear_15139_23687" x1=".001" x2="71.999" y1="28.202" y2="28.202" gradientUnits="userSpaceOnUse"><stop offset=".082" stop-color="#82ffe8"/><stop offset=".951" stop-color="#7c47fc"/></linearGradient><clipPath id="clip0_15139_23687"><path fill="#fff" d="M0 0h72v72H0z"/></clipPath></defs></svg>
